!!!!SEGMENT: pl-wtm--iii-40-856-2--001_wysocki-kasper-napoleon--quatre-krakowiaks-op-1-krakowiak-no-1.krn
!!!cenid: 18xx:4381
!!!COM: Wysocki, Kasper Napoleon
!!!COM-rismID: pe41024789
!!!CDT: 1810/12/06-1850/09/21
!!!CNT: Polish
!!!GTL: Quatre Krakowiaks op. 1
!!!OTL: Krakowiak. No. 1.
!!!OMV: 001
!!!PDT:
!!!AGN:
!!!SMS-siglum: PL-Wtm
!!!SMS-shelfmark: III.40.856/2
!!!SMS-shelfwork: 001-001 G
!!!SMS-variant:
!!!SMS-altvar:
!!!NIFC-rismSourceID: 1001153067
!!!NIFC-rismChildID: 1001153067
!!!NIFC-islandoraID: pl-wtm:13659
!!!URL-pdf-islandora: https://repozytorium.nifc.pl/islandora/object/pl-wtm:13659/datastream/PDF/view
!!!URL-scan: https://polish.musicsources.pl/pl/lokalizacje/galeria/druki-muzyczne/16673/2 @EN{Scan on Polish Music Sources Website} @PL{Skany w portalu Dziedzictwo Muzyki Polskiej w otwartym dostępie}
!!!ONB-nifc: UWAGA: skan 2-3.
!!!OMD: Allegro.
!!!AIN: 1 piano
!!!key:
**kern	**kern	**dynam
*part1	*part1	*part1
*staff2	*staff1	*
*	*I"Piano	*
*	*I'pf	*
*	*Ipiano	*
*	*ICklav	*
*	*IGsolo	*
*clefF4	*clefG2	*
*k[f#]	*k[f#]	*
*G:	*G:	*
*M2/4	*M2/4	*
*MM108	*MM108	*
=1	=1	=1
4GG/ 4D	8r	p
*	*ped	*
!	!LO:TUP:b	!
.	((24B/LL	.
.	24c/	.
.	24c#X/JJ)	.
4GG/ 4D	8d'/L)	.
*	*Xtuplet	*
.	(24B/L	.
.	24cn/	.
.	24c#X/JJ	.
=2	=2	=2
4GG/ 4D	8d'/L)	.
.	(24B/L	.
.	24cn/	.
.	24c#X/JJ	.
4GG/ 4D	8d'/L)	.
.	(24B/L	.
.	24cn/	.
*	*Xped	*
.	24c#X/JJ	.
=3	=3	=3
*	*ped	*
4GG/ 4D	8d'/L)	.
.	(16b/L	.
.	16g/JJ	.
4GG/ 4D	8d'/L)	.
.	(16b/L	.
.	16g/JJ	.
=4	=4	=4
4GG/ 4D	8d'/L)	.
.	(16b/L	.
.	16g/JJ	.
4GG/ 4D	8d'/L)	.
.	16b/L	.
*	*Xped	*
.	16g/JJ	.
=5	=5	=5
*^	*	*
*	*	*ped	*
!LO:N:vis=2	!	!	!
8GG/L	2GG\	8r	.
!	!	!LO:TX:a:t=Seréno	!
8D/ 8B	.	(4d^^/	.
8D/ 8B	.	.	.
8D/J 8B	.	16g/LL	.
.	.	16b/JJ	.
!!LO:LB:g=original
=6	=6	=6	=6
!LO:N:vis=2	!	!	!
8GG/L	2GG\	4.dd\	.
*	*	*Xped	*
8D/ 8B	.	.	.
8D/ 8B	.	.	.
8AA#X/J 8C#X 8E 8G	.	16ee\LL	sf
.	.	16cc#X\JJ	.
=7	=7	=7	=7
8GG/L	4GG/	8dd\L	.
8AA#X/J 8C#X 8E 8G	.	16ee\L	sf
.	.	16cc#X\JJ	.
8GG/L	4GG/	8dd\L	.
8AA#/J 8C# 8E 8G	.	16ee\L	sf
.	.	16cc#\JJ	.
=8	=8	=8	=8
*	*	*ped	*
!LO:N:vis=2	!	!	!
8GG/L	2GG\	4.dd\	.
8D/ 8B	.	.	.
8D/ 8B	.	.	.
8D/J 8B	.	16ccn\LL	.
.	.	16b\JJ)	.
=9	=9	=9	=9
8FF#/L	4FF#\	(4.aT/	.
8C/J 8D 8A	.	.	.
8DD/L	4DD\	.	.
8C/J 8D 8A	.	16g/LL	.
.	.	16f#/JJ	.
=10	=10	=10	=10
*	*	*ped	*
!LO:N:vis=2	!	!	!
8GG/L	2GG\	8g/)	.
.	.	8qg/	.
8D/ 8B	.	(4dd^^\	.
8D/ 8B	.	.	.
8D/J 8B	.	16cc\LL	.
*	*	*Xped	*
.	.	16b\JJ	.
=11	=11	=11	=11
8AA\L	4AA/	8a'/L)	.
8D\J 8F# 8A	.	(16b/L	.
.	.	16f#/JJ	.
8AA\L	4AA/	8a'/L)	.
8E\J 8G 8A	.	(16b/L	.
.	.	16c#X/JJ	.
*v	*v	*	*
!!LO:LB:g=original
=12	=12	=12
8D\ 8F# 8A	8d'/)	.
.	8qd/	sf
*	*ped	*
8DD/ 8D	(>4dd\	.
4r	.	.
.	16cc\LL	.
*	*Xped	*
.	16a\JJ	.
=13	=13	=13
*^	*	*
*	*	*ped	*
!LO:N:vis=2	!	!	!
8GG/L	2GG\	8g/)	.
8D/ 8B	.	(4dd^^\	f
8D/ 8B	.	.	.
8D/J 8B	.	16gg\LL	.
.	.	16bb\JJ	.
=14	=14	=14	=14
!LO:N:vis=2	!	!	!
8GG/L	2GG\	4.ddd\	.
*	*	*Xped	*
8D/ 8B	.	.	.
8D/ 8B	.	.	.
*	*	*tuplet	*
!	!	!LO:TUP:a	!LO:DY:b=2
8AA#X/J 8C#X 8E 8G	.	(24ggg\LL	sf
.	.	24ccc#X\	.
.	.	24eee\JJ)	.
=15	=15	=15	=15
8GG/L	4GG\	8ddd\L	.
*	*	*Xtuplet	*
!	!	!	!LO:DY:b=2
8AA#X/J 8C#X 8E 8G	.	24ggg\L	sf
.	.	24ccc#X\	.
.	.	24eee\JJ	.
8GG/L	4GG\	8ddd\L	.
!	!	!	!LO:DY:b=2
8AA#/J 8C# 8E 8G	.	24ggg\L	sf
.	.	24ccc#\	.
.	.	24eee\JJ	.
=16	=16	=16	=16
*	*	*ped	*
!LO:N:vis=2	!	!	!
8GG/L	2GG\	4.dddT\	.
8D/ 8B	.	.	.
8D/ 8B	.	.	.
8D/J 8B	.	16cccn\LL	.
*	*	*Xped	*
.	.	16bb\JJ	.
=17	=17	=17	=17
8FF#/L	4FF#\	(4.aaT\)	.
8C/J 8D 8A	.	.	.
8DD/L	4DD\	.	.
8C/J 8D 8A	.	16gg\LL	.
.	.	16ff#\JJ	.
!!LO:LB:g=original
=18	=18	=18	=18
*	*	*ped	*
!LO:N:vis=2	!	!	!
8GG/L	2GG\	8gg'\)	.
.	.	8qgg/	.
8D/ 8B	.	(4ddd\	.
8D/ 8B	.	.	.
8D/J 8B	.	16ccc\LL	.
*	*	*Xped	*
.	.	16bb\JJ	.
=19	=19	=19	=19
8AA\L	4AA/	8aa'\L)	.
8D\J 8F# 8A	.	(16bb\L	.
.	.	16ff#\JJ	.
8AA\L	4AA/	8aa\L)	.
8E\J 8G 8A	.	(16bb\L	.
.	.	16cc#X\JJ	.
=20	=20	=20	=20
*	*	*^	*
8D\ 8F# 8A	4ryy	8dd'\)	4ryy	.
8D\ 8A	.	8f#/ 8dd	.	sf
8r	8r	8r	8r	.
*Xtuplet	*	*tuplet	*	*
!	!	!LO:TUP:a	!	!
N(<24A/LL	[<8D\	(>(<24dd/LL	8f#\	p
24G#X/	.	24cc#X/	.	.
24A/JJ	.	24dd/JJ)	.	.
*	*	*v	*v	*
=21	=21	=21	=21
8B-X/L	2D\_	8cc#X'\L)	.
16A/L	.	(16cc#m\L	.
16Bn/JJ	.	16b\JJ	.
8c#X/L	.	8a/L	.
16d/L	.	16b/L	.
16e/JJ	.	16cc#/JJ	.
*v	*v	*	*
=22	=22	=22
*	*^	*
8D\]	8dd'/L)	8f#'\N)	.
4r	(16ff#/L	8ryy	.
.	16dd/JJ	.	.
.	[4a^^/)	4ryy	.
8D\ 8F# 8A 8d	.	.	.
*	*v	*v	*
=23	=23	=23
*tremolo	*	*
8E\L 8G 8A 8c#X	8a/L]	.
8E\ 8G 8A 8c#	(16b/L	.
.	16a/JJ	.
8E\ 8G 8A 8c#	8e'/L)	.
8E\J 8G 8A 8c#	(16b/L	.
.	16a/JJ	.
!!LO:LB:g=original
=24	=24	=24
8D\L 8F# 8A 8d	8f#'/L)	.
8D\ 8F# 8A 8d	(16b/L	.
.	16a/JJ	.
8D\ 8F# 8A 8d	8d/L)	.
8D\J 8F# 8A 8d	(16b/L	.
.	16a/JJ)	.
*Xtremolo	*	*
=25	=25	=25
*^	*	*
N(<8B-X^/L	[2D\	8r	.
16A/L	.	(16cc#Xm</LL	.
16Bn/JJ	.	16b/JJ	.
8c#X/L	.	8a/L	.
16d/L	.	16b/L	.
16e/JJ	.	16cc#/JJ	.
*v	*v	*	*
=26	=26	=26
*	*^	*
8D\]	8dd'/L)	8f#'\N)	.
4r	(16ff#/L	8ryy	.
.	16dd/JJ	.	.
*	*ped	*	*
.	[>4b^^/)	4ryy	.
8BB\ 8D 8F# 8B	.	.	.
*	*v	*v	*
=27	=27	=27
4BB\ 4D 4F# 4B	8b\L]	.
.	(16ff#\L	.
.	16dd\JJ	.
4BB\ 4D 4F# 4B	8b'\L)	.
.	(16ff#\L	.
.	16dd\JJ	.
=28	=28	=28
4BB\ 4D 4F# 4B	8b'\L)	.
.	(16ff#\L	.
.	16dd\JJ	.
4BB\ 4D 4F# 4B	8b'\L)	.
.	(16ff#\L	.
*	*Xped	*
.	16dd\JJ	.
=29	=29	=29
*^	*	*
*	*	*ped	*
8ryy	8BB'\L 8F#	8b'\L)	.
!	!	!LO:TX:a:t=sempre	!
(<16F#/LL	8BB\J	(16ddM\L	.
16G/JJ	.	16cc#X\JJ	.
!	!	!	!LO:DY:a
8ryy	8BB'\L) 8F#	8b\L	p
(<16F#/LL	8BB\J	16a#X\L	.
16G/JJ	.	16cc#\JJ	.
!!LO:LB:g=original
=30	=30	=30	=30
8ryy	8BB'\L) 8F#	8b'\L)	.
(<16F#/LL	8BB\J	(16ff#\L	.
16G/JJ	.	16dd\JJ	.
8ryy	8BB'\L) 8F#	[4b\)	.
(<16F#/LL	8BB\J	.	.
16G/JJ	.	.	.
=31	=31	=31	=31
8ryy	8BB'\L) 8F#	8b\L]	.
(<16F#/LL	8BB\J	(16ddM\L	.
16G/JJ	.	16cc#X\JJ	.
8ryy	8BB'\L) 8F#	8b\L	.
(<16F#/LL	8BB\J	16a#X\L	.
16G/JJ	.	16cc#\JJ	.
=32	=32	=32	=32
8ryy	8BB'\L) 8F#	8b'\L)	.
(<16F#/LL	8BB\J	16ff#\L	.
16G/JJ	.	16dd\JJ	.
8ryy	8BB'\L) 8F#	[4b\	.
(<16F#/LL	8BB\J	.	.
16G/JJ	.	.	.
*v	*v	*	*
=33	=33	=33
[2BB\) [2F#	8b\L]	>
.	(16ff#\L	.
.	16dd\JJ	.
.	8b\L)	.
.	(16ff#\L	.
.	16dd\JJ	]]
=34	=34	=34
2BB\_ 2F#_	8b\L)	.
.	(16ff#\L	.
.	16dd\JJ	.
.	8b\L)	.
.	(16ff#\L	.
*	*Xped	*
.	16dd\JJ	.
=35	=35	=35
4BB\] 4F#]	8b'\L)	.
*	*Xtuplet	*
.	(24b\L	.
.	24cc#X\	.
.	24ee\JJ	.
4r	8dd'\L)	.
.	(24b\L	<
.	24cc#\	.
.	24ee\JJ	.
!!LO:PB:g=original
=36	=36	=36
2D\ 2F# 2A 2c	8dd'\L)	.
.	(24a\L	.
.	24ccn\	.
.	24ee\JJ	.
.	8dd'\L)	.
.	(24a\L	[
.	24cc\	.
.	24ee\JJ	.
=37	=37	=37
*^	*	*
!LO:N:vis=2	!	!	!
8GG/L	2GG\	8dd\)	f
*	*	*ped	*
8D/ 8B	.	(<4d^^/	.
8D/ 8B	.	.	.
8D/J 8B	.	16g/LL	.
.	.	16b/JJ	.
=38	=38	=38	=38
!LO:N:vis=2	!	!	!
8GG/L	2GG\	(4.dd\)	.
*	*	*Xped	*
8D/ 8B	.	.	.
8D/ 8B	.	.	.
!	!	!	!LO:DY:b=2
8AA#X/J 8C#X 8E 8G	.	16ee\LL	sf
.	.	16cc#X\JJ	.
=39	=39	=39	=39
8GG/L	4GG\	8dd\L	.
!	!	!	!LO:DY:b=2
8AA#X/J 8C#X 8E 8G	.	16ee\L	sf
.	.	16cc#X\JJ	.
8GG/L	4GG\	8dd\L	.
!	!	!	!LO:DY:b=2
8AA#/J 8C# 8E 8G	.	16ee\L	sf
.	.	16cc#\JJ	.
=40	=40	=40	=40
*	*	*ped	*
!LO:N:vis=2	!	!	!
8GG/L	2GG\	4.dd\	.
8D/ 8B	.	.	.
8D/ 8B	.	.	.
8D/J 8B	.	16ccn\LL	.
*	*	*Xped	*
.	.	16b\JJ)	.
=41	=41	=41	=41
8FF#/L	4FF#\	(4.aT/	.
8C/J 8D 8A	.	.	.
8DD/L	4DD\	.	.
8C/J 8D 8A	.	16g/LL	.
.	.	16f#/JJ	.
=42	=42	=42	=42
*	*	*ped	*
!LO:N:vis=2	!	!	!
8GG/L	2GG\	8g/)	.
.	.	8qg/	.
8D/ 8B	.	(4dd^^\	.
8D/ 8B	.	.	.
8D/J 8B	.	16cc\LL	.
*	*	*Xped	*
.	.	16b\JJ)	.
!!LO:LB:g=original
=43	=43	=43	=43
!	!	!LO:TX:a:t=leggiermente.	!
8AA\L	4AA/	16a'/LL	.
.	.	16a'/	.
8D\J 8F# 8A	.	16b'/	.
.	.	16f#'/JJ	.
8AA\L	4AA/	16a'/LL	.
.	.	16a'/	.
8E\J 8G 8A	.	16b'/	.
.	.	16c#X'/JJ	.
*v	*v	*	*
=44	=44	=44
8D\ 8F# 8A	8d'/	.
.	8qf#/	.
*	*ped	*
8DD/ 8D	(4dd^^\	sf
4r	.	.
*	*tuplet	*
!	!LO:TUP:a	!
.	(24cc\LL	.
.	24a\	.
*	*Xped	*
.	24f#\JJ)	.
=45	=45	=45
*^	*	*
!LO:N:vis=2	!	!	!
8GG\L	2GG/	8g/)	.
*	*	*ped	*
8D\ 8B	.	(4d^^/	f
8D\ 8B	.	.	.
8D\J 8B	.	16g/LL	.
.	.	16b/JJ	.
=46	=46	=46	=46
!LO:N:vis=2	!	!	!
8GG\L	2GG/	(4.dd\)	.
*	*	*Xped	*
8D\ 8B	.	.	.
8D\ 8B	.	.	.
*	*	*Xtuplet	*
8AA#X\J 8C#X 8E 8G	.	24gg\LL	.
.	.	24cc#X\	.
.	.	24ee\JJ	.
=47	=47	=47	=47
8GG\L	4GG/	8dd\L	.
8AA#X\J 8C#X 8E 8G	.	24gg\L	sf
.	.	24cc#X\	.
.	.	24ee\JJ	.
8GG\L	[4GG/	8dd\L	.
8AA#\J 8C# 8E 8G	.	24gg\L	sf
.	.	24cc#\	.
.	.	24ee\JJ	.
*v	*v	*	*
=48	=48	=48
*	*^	*^
8GG\] 8D 8B	8dd'\)	8ryy	.	.
*	*	*ped	*	*
!	!	!	!LO:DY:a	!LO:DY:b=2
8EE/ 8E	(<8.ee/L	8e\ 8g#X	f	f
4r	.	4r	.	.
.	16dd/L	.	.	.
.	16cc/	.	.	.
.	16b/JJ	.	.	.
*	*	*	*v	*v
!!LO:LB:g=original
=49	=49	=49	=49
*	*	*Xped	*
8r	8cc/)	8r	.
8AA'/L 8E	8c'/L 8e 8a	8ryy	f
8AA'/J 8E	8c'/J 8e 8a	4ryy	.
8r	(>16cc\LL	.	.
.	16dd\JJ	.	.
=50	=50	=50	=50
*	*ped	*	*
8r	8ee\)	8ryy	.
8EE/ 8E	(<8.ee/L	8e\ 8g#X	sf
4r	.	4r	.
.	16dd/L	.	.
.	16cc/	.	.
.	16b/JJ	.	.
=51	=51	=51	=51
*	*Xped	*	*
8r	8cc/)	8r	.
8AA'/L 8E	8c'/L 8e 8a	8ryy	f
8AA'/J 8E	8c'/J 8e 8a	4ryy	.
8r	(16b\LL	.	.
.	16cc\JJ	.	.
=52	=52	=52	=52
*	*ped	*	*
8r	8dd\)	8ryy	.
8DD/ 8D	(<8.dd/L	8d\ 8f#	sf
4r	.	4r	.
.	16cc/L	.	.
.	16b/	.	.
*	*Xped	*	*
.	16a/JJ	.	.
=53	=53	=53	=53
8r	8b/)	8r	.
!	!LO:TX:a:t=sempre forte.	!	!LO:DY:rj
8GG'/L 8D	8B'/L 8d 8g	8ryy	f
8GG'/J 8D	8B'/J 8d 8g	4ryy	.
8r	(16b\LL	.	.
.	16cc\JJ	.	.
=54	=54	=54	=54
8r	8dd'\)	8ryy	.
*	*	*ped	*
8DD/ 8D	8.dd/L	8d\ 8f#	sf
4r	.	4r	.
.	(<16cc/L	.	.
.	16b/	.	.
.	16a/JJ	.	.
=55	=55	=55	=55
*	*	*Xped	*
8GG/ 8D	8b/)	8r	.
*	*ped	*	*
!	!	!	!LO:DY:rj
8BBB'/L 8BB	8f#'/L 8a 8dd#X	8ryy	f
8BBB'/J 8BB	8f#'/J 8a 8dd#	4ryy	.
(16BB\LL 16F#	(>16b\LL 16dd#	.	p
16BB\JJ 16F#	16cc#X\JJ 16ee	.	.
*	*v	*v	*
!!LO:LB:g=original
=56	=56	=56
8BB\L) 8F#	8dd#X'\) 8ff#	.
(16BB\L 16F#	(16e/LL 16a#X 16cc#X	.
16BB\JJ 16F#	16dd#/JJ	.
8BB\L) 8F#	[4d#X/) [4b	.
(16BB\L 16F#	.	.
16BB\JJ 16F#	.	.
=57	=57	=57
8BB'\) 8F#	8d#/] 8b]	.
8BBB'/L 8BB	8f#'/L 8b 8dd#X	f
8BBB'/J 8BB	8f#'/J 8b 8dd#	.
(16BB\LL 16F#	(16b\LL 16dd#	p
16BB\JJ 16F#	16cc\JJ 16ee	.
=58	=58	=58
8BB'\L) 8F#	8dd#X'\) 8ff#	.
(16BB\L 16F#	(16e/LL 16a#X 16cc#X	.
16BB\JJ 16F#	16dd#/JJ	.
8BB'\L) 8F#	8d#X/) 8b	.
(16BB\L 16F#	(16b\LL 16dd#	.
16BB\JJ 16F#	16cc#\JJ 16ee	.
=59	=59	=59
8BB'\L) 8F#	8dd#X\) 8ff#	.
(16BB\L 16F#	16e/LL 16a#X 16cc#X	>
16BB\JJ 16F#	16dd#/JJ	.
8BB'\L) 8F#	8d/ 8b	.
(16BB\L 16F#	(16b\LL 16dd#	.
16BB\JJ 16F#	16cc#\JJ 16ee	.
=60	=60	=60
8BB'\L) 8F#	8dd#X'\) 8ff#	.
(16BB\L 16F#	(16e/LL 16a#X 16cc#X	.
16BB\JJ 16F#	16dd#/JJ	.
8BB'\L) 8F#	[4d/) [4b	]]
(16BB\L 16F#	.	.
16BB\JJ 16F#	.	.
=61	=61	=61
[2BB\) 2F#	8d/L] 8b]	.
.	(16cc#X/L	p
.	16a#X/JJ	.
.	8b'\L)	.
.	(16cc#\L	.
.	16a#\JJ	.
!!LO:LB:g=original
=62	=62	=62
4BB\] 4D#X 4A	8b'\L)	.
.	(16cc\L	.
.	16a#X\JJ	.
4r	8b'\L)	.
.	(16cc\L	.
*	*Xped	*
.	16a#\JJ	.
=63	=63	=63
*^	*	*
8EE/	8ryy	8b\)	p
!LO:N:vis=4.	!	!LO:TX:a:t=ben pronontiato la melodia.	!LO:DY:b=2
(4E/	[4.E\	8B'/L 8e 8g	f
.	.	8B'/ 8e 8g	.
16G/LL	.	8B'/J 8e 8g	.
16A/JJ	.	.	.
=64	=64	=64	=64
*	*	*tremolo	*
!	!	!LO:TX:a:t=....	!
4.B/	2E\_	8e/L 8g	.
.	.	8e/ 8g	.
.	.	8e/ 8g	.
16c/LL	.	8e/J 8g	.
16A#X/JJ	.	.	.
=65	=65	=65	=65
!	!	!LO:TX:a:t=....	!
8B/L	2E\_	8e/L 8g	.
16c/L	.	8e/ 8g	.
16A#X/JJ	.	.	.
8B/L	.	8e/ 8g	.
16c/L	.	8e/J 8g	.
16A#/JJ)	.	.	.
*	*	*Xtremolo	*
=66	=66	=66	=66
4.B/	4E\]	8e'/L 8g	.
.	.	8e'/ 8g	.
.	4ryy	8e'/ 8g	.
(16g>\LL	.	8b'>/J 8ee	.
16f#>\JJ	.	.	.
*v	*v	*	*
=67	=67	=67
8e>'\L)	8a/L 8cc	.
(16d#X>\L	8a/J 8cc	.
16e>\JJ	.	.
!LO:TX:t=P:problem=mixed beam	!	!
8f#>'\L)	8a/L 8b	.
(<16A#X/L	8f#/J 8a	.
16B/JJ	.	.
=68	=68	=68
*	*^	*
([4c^^\)	8e'>/L 8a	4ryy	.
.	8e'>/J 8a	.	.
!	!	!	!LO:DY:a
16c\LL]	(<16a/LL	4e\	p
16B\	16g/	.	.
16G\)	16cc/	.	.
16E\JJ	16b/JJ)	.	.
!!LO:LB:g=original
=69	=69	=69	=69
*	*ped	*	*
!	!	!	!LO:DY:a
8r	(<[4g^^/	4A\ 4d#X	f
!	!	!	!LO:DY:b=2:rj
(<16BBB/LL	.	.	p
16BB/JJ	.	.	.
8D#X\L)	16g/LL]	4ryy	.
.	16f#/	.	.
(16G\L	16d#/	.	.
*	*Xped	*	*
16F#\JJ)	16B/JJ)	.	.
=70	=70	=70	=70
*	*ped	*	*
8r	(<[4e/	8G\ 8B	.
(<16EE/LL	.	8ryy	.
16E/JJ	.	.	.
8G'\L)	16e/LL]	4ryy	.
.	16d/	.	.
8B'\J	16e/	.	.
*	*Xped	*	*
.	16g/JJ)	.	.
*	*v	*v	*
=71	=71	=71
*	*	*^
!	!	!LO:DY:a	!LO:DY:a:rj
8e>\L	8a'>/L 8cc	p	f
(16d#X>\L	8a'>/J 8cc	.	.
16e>\JJ	.	.	.
8f#>\L)	8a'>/L 8b	.	.
(<16A#X/L	8f#'>/J 8a	.	.
16B/JJ	.	.	.
*	*	*v	*v
=72	=72	=72
*	*^	*
([4c^^\)	8e'/L 8a	4ryy	.
.	8e'/J 8a	.	.
16c\LL]	(<16a/LL	4e\	.
16B\	16g/	.	.
16G\	16cc/	.	.
16E\JJ)	16b/JJ)	.	.
=73	=73	=73	=73
*	*	*	*^
*	*ped	*	*	*
!	!	!	!LO:DY:a	!LO:DY:b=2
8r	(<[4g^^/	4A\ 4d#X	f	p
(<16BBB/LL	.	.	.	.
16BB/JJ	.	.	.	.
8D#X'\L)	16g/LL]	4r	.	.
.	16f#/	.	.	.
(16G\L	16d#/	.	.	.
*	*Xped	*	*	*
16F#\JJ)	[<16B/JJ)	.	.	.
*	*	*	*v	*v
=74	=74	=74	=74
*^	*	*	*
8G/	8E\	8e/L	8B\]	.
*	*	*ped	*	*
4.F#X/	4.D\	8.e-X^^/	4.c\	>
.	.	16d/L	.	.
.	.	16d/	.	.
*	*	*Xped	*	*
.	.	16d/JJ	.	]
*	*	*v	*v	*
!!LO:PB:g=original
=75	=75	=75	=75
!LO:N:vis=2	!	!	!
8GG/L	2GG\	8r	p
*	*	*ped	*
8D/ 8B	.	(<4d^^/	.
8D/ 8B	.	.	.
8D/J 8B	.	16g/LL	.
.	.	16b/JJ	.
=76	=76	=76	=76
*	*	*Xped	*
!LO:N:vis=2	!	!	!
8GG\L	2GG\	(4.dd\)	.
8D\ 8B	.	.	.
8D\ 8B	.	.	.
8AA#X\J 8C#X 8E 8G	.	16ee\LL	sf
.	.	16cc#X\JJ	.
=77	=77	=77	=77
8GG\L	4GG/	8dd\L	.
8AA#X\J 8C#X 8E 8G	.	16ee\L	.
.	.	16cc#X\JJ	.
8GG\L	4GG/	8dd\L	.
8AA#\J 8C# 8E 8G	.	16ee\L	sf
.	.	16cc#\JJ	.
=78	=78	=78	=78
*	*	*ped	*
!LO:N:vis=2	!	!	!
8GG/L	2GG\	4.dd\	.
8D/ 8B	.	.	.
8D/ 8B	.	.	.
8D/J 8B	.	16ccn\LL	.
*	*	*Xped	*
.	.	16b\JJ)	.
=79	=79	=79	=79
8FF#/L	4FF#\	(4.aT</	.
8C/J 8D 8A	.	.	.
8DD/L	4DD\	.	.
8C/J 8D 8A	.	16g/LL	.
.	.	16f#/JJ	.
=80	=80	=80	=80
*	*	*ped	*
!LO:N:vis=2	!	!	!
8GG/L	2GG\	8g/)	.
.	.	8qg/	.
8D/ 8B	.	(4dd^^\	.
8D/ 8B	.	.	.
8D/J 8B	.	16cc\LL	.
.	.	16b\JJ	.
=81	=81	=81	=81
*	*	*Xped	*
8AA\L	4AA/	8a'/L)	.
8D\J 8F# 8A	.	(16b/L	.
.	.	16f#/JJ	.
8AA\L	4AA/	8a'/L)	.
8E\J 8G 8A	.	(16b/L	.
.	.	16c#X/JJ	.
*v	*v	*	*
!!LO:LB:g=original
=82	=82	=82
8D\ 8F# 8A	8d'/)	.
!	!	!LO:DY:b=2
.	8qd/	sf
*	*ped	*
8DD/ 8D	(4dd^^\	.
4r	.	.
*	*tuplet	*
!	!LO:TUP:a	!
.	(24cc\LL	.
.	24a\	.
*	*Xped	*
.	24f#\JJ)	.
=83	=83	=83
*^	*	*
!LO:N:vis=2	!	!	!
8GG\L	2GG/	8g'/)	.
*	*	*ped	*
!	!	!	!LO:DY:rj
8D\ 8B	.	(4dd^^\	f
8D\ 8B	.	.	.
8D\J 8B	.	16gg\LL	.
.	.	16bb\JJ	.
=84	=84	=84	=84
*	*	*Xped	*
!LO:N:vis=2	!	!	!
8GG\L	2GG/	4.ddd\	.
8D\ 8B	.	.	.
8D\ 8B	.	.	.
*	*	*Xtuplet	*
8AA#X\J 8C#X 8E 8G	.	(24ggg\LL	sf
.	.	24ccc#X\	.
.	.	24eee\JJ)	.
=85	=85	=85	=85
8GG\L	4GG/	8ddd\L	.
8AA#X\J 8C#X 8E 8G	.	24ggg\L	sf
.	.	24ccc#X\	.
.	.	24eee\JJ	.
8GG\L	4GG/	8ddd\L	.
8AA#\J 8C# 8E 8G	.	24ggg\L	sf
.	.	24ccc#\	.
.	.	24eee\JJ)	.
*v	*v	*	*
=86	=86	=86
.	8qccc#X/	rf
*	*ped	*
2GG#X\ 2D 2E 2B	(4.dddT\	.
.	16cccn\LL	.
*	*Xped	*
.	16bb\JJ	.
=87	=87	=87
*^	*	*
*	*	*ped	*
!LO:N:vis=2	!	!	!
8AA\L	2AA/	8aa\)	<
8E\ 8c	.	(4ee\	.
8E\ 8c	.	.	.
8E\J 8c	.	16aa\LL	.
.	.	16ccc\JJ	.
!!LO:LB:g=original
=88	=88	=88	=88
!LO:N:vis=2	!	!	!
8AA\L	2AA/	4.eee\	.
8E\ 8c	.	.	.
8E\ 8c	.	.	.
8C\J 8D#X 8F# 8A	.	24aaa\LL	[
*	*	*Xped	*
.	.	24ddd#X\	.
.	.	24fff#\JJ	.
=89	=89	=89	=89
8AA\L	4AA/	8eee\L	.
8C\J 8D#X 8F# 8A	.	24aaa\L	sf
.	.	24ddd#X\	.
.	.	24fff#\JJ	.
8AA\L	4AA/	8eee\L	.
8C\J 8D# 8F# 8A	.	24aaa\L	sf
.	.	24ddd#\	.
.	.	24fff#\JJ)	.
*v	*v	*	*
=90	=90	=90
*ped	*	*
.	8qfff#X/	sf >
2C#X\ 2G 2A#X 2e	(4.gggT\	.
.	16fff#\LL	.
.	16eee\JJ	.
*Xped	*	*
=91	=91	=91
8D\ 8G 8B 8d	8ddd'\)	.
*ped	*	*
(4D\	(4d/	] f
16G\LL	16g/LL	.
16B\JJ	16b/JJ	.
=92	=92	=92
8d\L	8dd/L	.
16c\L	16cc/L	.
16B\JJ)	16b/JJ)	.
(8AT\L	(8aT</L	.
16G\L	16g/L	.
16E\JJ)	16e/JJ)	.
=93	=93	=93
(8D\L	(8d/L	.
16C\L	16c/L	.
16BB\JJ)	16B/JJ)	.
(>8AAT<\L	(<8A<T>/L	.
16GG\L	16G</L	.
16EE\JJ)	16F#</JJ)	.
!!LO:LB:g=original
=94	=94	=94
*	*Xped	*
!LO:TX:t=P:problem:rozpoczęcie ped pod dolną pięciolinią, zakończenie pod górną	!	!
8DD/ 8D	8r	.
(<8c#X>\L [<8g>	(>(>8a#X/L 8ee	p
8d>\J) 8g>]	8b\J)) 8dd	.
(8D\L 8A	(8cn/L 8f#	.
=95	=95	=95
8GG\J) 8G	8B/J) 8g	.
*	*tuplet	*
*	*ped	*
!	!LO:TX:a:t=murmurendo.	!
!	!LO:TUP:b	!
8GG/L 8D	((24B/LL	.
.	24c/	.
.	24c#X/JJ)	.
8GG/ 8D	8d'/L)	.
*	*Xtuplet	*
8GG/J 8D	(24B/L	.
.	24cn/	.
.	24c#X/JJ	.
=96	=96	=96
*tremolo	*	*
8GG/L 8D	8d'/L)	.
8GG/ 8D	(24B/L	.
.	24c/	.
.	24c#X/JJ	.
8GG/ 8D	8d'/L)	.
8GG/J 8D	(24B/L	.
.	24cn/	.
.	24c#X/JJ	.
=97	=97	=97
8GG/L 8D	8d'/L)	<
8GG/ 8D	(16b/L	.
.	16g/JJ	.
8GG/ 8D	8d'/L)	.
8GG/J 8D	(16b/L	.
*	*Xped	*
.	16g/JJ	[[
=98	=98	=98
*	*ped	*
8GG/L 8E-X	8c'/L)	>
8GG/ 8E-	(16a/L	.
.	16f#/JJ	.
8GG/ 8E-	8c'/L)	.
8GG/J 8E-	(16a/L	.
*	*Xped	*
.	16f#/JJ	]]
=99	=99	=99
*	*ped	*
8GG/L 8D	8B/) 8g	.
*	*tuplet	*
!	!LO:TUP:b	!
8GG/ 8D	((24B/LL	.
.	24c/	.
.	24c#X/JJ)	.
8GG/ 8D	8d'/L)	.
!	!LO:TUP:b	!
8GG/J 8D	((24B/L	.
.	24cn/	.
.	24c#X/JJ)	.
!!LO:LB:g=original
=100	=100	=100
8GG/L 8D	8d'/L)	.
*	*Xtuplet	*
8GG/ 8D	(24B/L	.
.	24c/	.
.	24c#X/JJ	.
8GG/ 8D	8d'/L)	.
8GG/J 8D	(24B/L	.
.	24cn/	.
.	24c#X/JJ	.
=101	=101	=101
8GG/L 8D	8d'/L)	<
8GG/ 8D	(16b/L	.
.	16g/JJ	.
8GG/ 8D	8d'/L)	.
*	*Xped	*
8GG/J 8D	(16b/L	.
.	16g/JJ	[[
=102	=102	=102
*	*ped	*
8GG/L 8E-X	8c'/L)	>
8GG/ 8E-	(16a/L	.
.	16f#/JJ	.
8GG/ 8E-	8c'/L)	.
8GG/J 8E-	(16a/L	.
*	*Xped	*
.	16f#/JJ	]]
=103	=103	=103
*	*ped	*
8GG/L 8D	8d'/L)	<
8GG/ 8D	(16b/L	.
.	16g/JJ	.
8GG/ 8D	8d'/L)	.
8GG/J 8D	(16b/L	.
*	*Xped	*
.	16g/JJ	[[
*Xtremolo	*	*
=104	=104	=104
*	*ped	*
2GG/ 2E-X	8c'/L)	>
.	(16a/L	.
.	16f#/JJ	.
.	8c'/L)	.
.	(16a/L	.
*	*Xped	*
.	16f#/JJ	]]
=105	=105	=105
*	*ped	*
4.GG/ 4.D	8B'/L) 8g	.
.	(24B/L	.
.	24c/	.
.	24c#X/JJ	.
.	[4d/)	.
8GG/ 8D	.	.
=106	=106	=106
4.GG/ 4.D	8d/]	.
.	(24b\LL	.
.	24cc\	.
.	24cc#X\JJ)	.
.	[4dd\	.
8GG/ 8D	.	.
!!LO:LB:g=original
=107	=107	=107
4GG/ 4D	8dd\L]	.
.	(24bb\L	.
.	24ccc\	.
.	24ccc#X\JJ	.
4GG/ 4D	8ddd\L)	.
*	*8va	*
.	(24bbb\L	.
.	24cccc\	.
.	24cccc#X\JJ	.
=108	=108	=108
4GG/ 4D	8dddd\L)	.
.	(24bbb\L	.
.	24cccc\	.
.	24cccc#X\JJ	.
[4GG/ [4D	8dddd\L)	.
.	24bbb\L	.
.	24ccccn\	.
.	24cccc#X\JJ	.
=109	=109	=109
8GG/L] 8D]	4.dddd\	.
8GG/J 8D	.	.
[4GG/ [4D	.	.
.	24bbb\LL	.
.	24cccc\	.
.	24cccc#X\JJ	.
=110	=110	=110
!	!LO:TX:b:t=perdendo.	!
8GG/L] 8D]	4.dddd\	.
8GG/J 8D	.	.
[4GG/ [4D	.	.
.	24bbb\LL	.
.	24cccc\	.
.	24cccc#X\JJ	.
=111	=111	=111
8GG/L] 8D]	4dddd\	.
8GG/J 8D	.	.
*	*X8va	*
[4GG/ [4D	4r	.
=112	=112	=112
8GG/L] 8D]	2r	.
8GG/J 8D	.	.
[4GG/ [4D	.	.
=113	=113	=113
8GG/L] 8D]	2r	.
8GG/J 8D	.	.
[4GG/ [4D	.	.
=114	=114	=114
2GG;/] 2D]	2r	.
==	==	==
*-	*-	*-
!!!system-decoration: {(s1,s2)}
!!!RDF**kern: < = below
!!!RDF**kern: > = above
!!!RDF**kern: N = linked
!!!ENC: Berenika Jozajtis
!!!END: 2022-12-16
!!!ENC: Marta Chmielewska
!!!END: 2023-07-15
!!!YEC: Copyright 2022 Narodowy Instytut Fryderyka Chopina (https://polishscores.org)
!!!YEM: License CC-BY-4.0 (https://creativecommons.org/licenses/by/4.0)
